X: 36873
T: Shoe Frontage
R: reel
M: 4/4
K: Dmajor
ABc|:d2 AG FAdf|abaf eddc|B/B/B BA FABd|A/A/A eA cAAc|
d2 AG FAdf|abaf eddc|B/B/B BA FABd|1 caec d2A/B/c:|2 caec B/B/B BA||
|:FEFA BABc|dbaf edde|fBBA FEFA|cfed cAAz|
FEFA BABc|dbaf edde|fBBA FEFA|1 cfec B/B/B BA:|2 cfec d2A/B/c||

